X: 19733
T: Jenny Picking Cockles
R: reel
M: 4/4
K: Gmajor
|:Addc AGEF|GEcE dEcE|Addc AGEF|GEcE EDD2|
Addc AGEF|GEAB c3 d|eddc AGEF|GEcE EDD2:|
|:=f3 d e3 d|cAAB cdeg|=f3 d e3 d|eaag edd2|
=f3 d e3 d|cBAB c3 d|eddc AGEF|GEcE EDD2:|

